material/.icons/material/sort-reverse-variant.svg

<svg xmlns="http://www.w3.org/2000/svg" viewBox="0 0 24 24"><path d="M3 11h12v2H3m0 5v-2h18v2M3 6h6v2H3z"/></svg>

<?xml version="1.0" encoding="UTF-8"?><!DOCTYPE svg PUBLIC "-//W3C//DTD SVG 1.1//EN" "http://www.w3.org/Graphics/SVG/1.1/DTD/svg11.dtd"><svg xmlns="http://www.w3.org/2000/svg" xmlns:xlink="http://www.w3.org/1999/xlink" version="1.1" id="mdi-sort-reverse-variant" width="24" height="24" viewBox="0 0 24 24"><path d="M3 11H15V13H3M3 18V16H21V18M3 6H9V8H3Z" /></svg>
